packages/core/src/svgs/zkp.svg

<svg width="24" height="24" viewBox="0 0 24 24" fill="none" xmlns="http://www.w3.org/2000/svg">
<g clip-path="url(#clip0_31_21225)">
<path d="M0 0H24V24H0V0Z" fill="#F0F3FA"/>
<path d="M12.0001 19.2853C13.9324 19.2853 15.7855 18.5177 17.1518 17.1514C18.5182 15.785 19.2858 13.9319 19.2858 11.9996C19.2858 10.0673 18.5182 8.21414 17.1518 6.8478C15.7855 5.48147 13.9324 4.71387 12.0001 4.71387C10.0678 4.71387 8.21463 5.48147 6.84829 6.8478C5.48196 8.21414 4.71436 10.0673 4.71436 11.9996C4.71436 13.9319 5.48196 15.785 6.84829 17.1514C8.21463 18.5177 10.0678 19.2853 12.0001 19.2853ZM6.42864 8.76815L6.35578 8.78958C6.91972 7.79371 7.73639 6.96422 8.72336 6.38484C9.71033 5.80546 10.8327 5.4967 11.9771 5.4897C13.1215 5.48271 14.2476 5.77774 15.2416 6.34502C16.2355 6.9123 17.0623 7.73174 17.6383 8.72065C18.2144 9.70956 18.5194 10.8329 18.5225 11.9774C18.5257 13.1218 18.2269 14.2469 17.6563 15.2389C17.0857 16.231 16.2635 17.055 15.2726 17.6277C14.2818 18.2005 13.1574 18.5017 12.0129 18.501C11.5636 18.4999 11.1232 18.3755 10.7397 18.1414C10.3561 17.9073 10.0442 17.5725 9.83778 17.1734C9.63138 16.7743 9.53843 16.3262 9.56906 15.8779C9.59969 15.4296 9.75272 14.9983 10.0115 14.631L10.0158 14.6224C10.371 14.1221 10.9015 13.7738 11.5018 13.6467C12.1022 13.5197 12.7283 13.6232 13.2558 13.9367L14.2415 14.9096C14.3572 15.081 15.3258 15.0253 15.4972 14.9096C15.6344 14.8239 15.6258 14.3739 15.6172 14.1896C15.6172 14.1424 15.6344 14.091 15.6729 14.061C15.8015 13.9453 16.0929 13.6882 16.1829 13.5982C16.2686 13.5124 16.2901 13.1996 16.2944 13.0496C16.2944 13.0024 16.3201 12.9553 16.3629 12.921C16.5215 12.7924 16.5944 12.5824 16.6201 12.471C16.6267 12.4496 16.6286 12.427 16.6257 12.4048C16.6227 12.3826 16.6149 12.3613 16.6029 12.3424L15.7029 10.911C15.6823 10.8778 15.6747 10.8381 15.6815 10.7996C15.6944 10.6839 15.6901 10.4053 15.3815 10.0582C14.9829 9.59958 13.0415 8.5153 12.7586 8.45958C12.5444 8.41672 12.2358 8.43815 12.0944 8.45101C12.0694 8.45462 12.0439 8.45223 12.0201 8.44403C11.9962 8.43584 11.9747 8.42207 11.9572 8.40387C11.7644 8.21101 11.1344 7.58958 10.9886 7.48672C10.8258 7.37958 10.7529 7.44387 10.7101 7.48672H10.7058C10.6001 7.707 10.5306 7.94289 10.5001 8.1853C10.4927 8.2277 10.4697 8.26578 10.4355 8.29198C10.4014 8.31818 10.3586 8.33059 10.3158 8.32672C9.21864 8.2153 7.39293 8.55815 6.43293 8.76815H6.42864Z" fill="black"/>
</g>
<defs>
<clipPath id="clip0_31_21225">
<rect width="24" height="24" fill="white"/>
</clipPath>
</defs>
</svg>

<svg xmlns="http://www.w3.org/2000/svg" width="24" height="24" fill="none" viewBox="0 0 24 24"><g clip-path="url(#a)"><path fill="#F0F3FA" d="M0 0h24v24H0z"/><path fill="#000" d="M12 19.285a7.286 7.286 0 1 0 0-14.57 7.286 7.286 0 0 0 0 14.57M6.43 8.768l-.073.022a6.506 6.506 0 1 1 5.657 9.711 2.455 2.455 0 0 1-2.001-3.87l.004-.009a2.443 2.443 0 0 1 3.24-.685l.986.973c.115.171 1.084.115 1.255 0 .137-.086.129-.536.12-.72 0-.048.017-.099.056-.129.129-.116.42-.373.51-.463.086-.086.107-.398.111-.548a.17.17 0 0 1 .069-.129c.159-.129.231-.339.257-.45a.16.16 0 0 0-.017-.129l-.9-1.431a.16.16 0 0 1-.021-.111c.012-.116.008-.395-.3-.742-.4-.458-2.34-1.543-2.623-1.598-.215-.043-.523-.022-.665-.009a.16.16 0 0 1-.137-.047c-.193-.193-.823-.814-.968-.917-.163-.107-.236-.043-.279 0h-.004a2.3 2.3 0 0 0-.206.698.17.17 0 0 1-.184.142c-1.097-.112-2.923.231-3.883.441z"/></g><defs><clipPath id="a"><path fill="#fff" d="M0 0h24v24H0z"/></clipPath></defs></svg>
